dist/svg/u1F490.svg

<?xml version="1.0" encoding="UTF-8"?><svg id="Layer_1" xmlns="http://www.w3.org/2000/svg" viewBox="0 0 40 40"><g><path d="M36.1466,20.39186c-10.30169,1.54699-14.05944,7.35945-15.41489,11.80763V13.39742h-1.43768v18.89195c-1.33183-4.45931-5.06826-10.34002-15.44062-11.89751,0,0,4.71259,9.05303,16.14418,17.21412l.00021,.00357,.00231-.00168,.00221,.00168,.00021-.00357c11.43169-8.16109,16.14408-17.21412,16.14408-17.21412Zm-16.14597,15.97396l-.00053,.01386-.00063-.01386h.00116Z" style="fill:#03905a;"/><g><path d="M24.93672,9.52805c0,2.48397-2.18834,4.49763-4.8878,4.49763s-4.8878-2.01366-4.8878-4.49763c0-1.84856,2.70699-5.18786,4.09191-6.77531,.42142-.48305,1.17035-.48305,1.59177,0,1.38492,1.58746,4.09191,4.92676,4.09191,6.77531Z" style="fill:#d12030;"/><path d="M24.04285,7.1769c1.41077,2.11776,.68871,4.88691-1.61277,6.18506s-5.31085,.63373-6.72162-1.48403c-1.03358-1.55154-.65097-5.5965-.37249-7.64857,.08881-.65444,.75006-1.06594,1.37718-.85881,2.08474,.68856,6.28098,2.23208,7.32969,3.80635Z" style="fill:#e32939;"/><path d="M16.00059,7.43038c-1.41077,2.11776-.68871,4.88691,1.61277,6.18506,2.30148,1.29815,5.31085,.63373,6.72162-1.48403,1.03358-1.55154,.65097-5.5965,.37249-7.64857-.08881-.65444-.75006-1.06594-1.37718-.85881-2.08474,.68856-6.28098,2.23208-7.32969,3.80635Z" style="fill:#ef4452;"/></g><rect x="23.76346" y="19.43669" width="1.20946" height="11.21256" transform="translate(10.85077 -7.17874) rotate(21.45893)" style="fill:#03905a;"/><rect x="15.07572" y="19.43669" width="1.20946" height="11.21256" transform="translate(39.43551 42.61351) rotate(158.54107)" style="fill:#03905a;"/><g><path d="M32.68263,18.02606c-1.16163,2.17846-4.02251,2.92107-6.38995,1.65866-2.36744-1.2624-3.34494-4.05177-2.18331-6.23023,.86448-1.6212,4.80015-3.28385,6.75711-4.0284,.59549-.22656,1.2523,.12368,1.39599,.74439,.47221,2.03987,1.28463,6.23438,.42015,7.85557Z" style="fill:#f77f00;"/><path d="M32.99822,15.54607c.24688,2.51703-1.68136,4.60792-4.30685,4.67012-2.62549,.0622-4.95401-1.92783-5.20089-4.44487-.18087-1.84406,2.0463-5.21259,3.25018-6.88203,.38394-.53242,1.1563-.58407,1.60942-.10914,1.50633,1.5788,4.46462,4.89485,4.64814,6.76592Z" style="fill:#ff9000;"/><path d="M25.72582,11.77645c-2.28319,1.22741-2.96144,4.06264-1.51491,6.33266,1.44653,2.27002,4.47006,3.11522,6.75325,1.88781,1.67274-.89924,3.26763-4.71857,4.0009-6.69661,.23385-.63084-.16329-1.31767-.82628-1.43208-2.20398-.38031-6.71573-1.00419-8.41297-.09178Z" style="fill:#ffad00;"/></g><g><path d="M15.88909,13.37914c1.19098,2.16255,.25129,4.96488-2.09886,6.25918-2.35015,1.2943-5.22081,.59045-6.41179-1.5721-.88632-1.60936-.1307-5.81447,.31389-7.86054,.13528-.6226,.7873-.98169,1.3858-.7632,1.96685,.71802,5.92464,2.3273,6.81097,3.93666Z" style="fill:#18a4a4;"/><path d="M13.98359,11.76081c2.24361,1.16731,2.9427,3.92434,1.56145,6.15799s-4.31978,3.09811-6.56339,1.9308c-1.64375-.85521-3.25007-4.5602-3.99153-6.48026-.23646-.61234,.14192-1.28764,.7872-1.408,2.14512-.4001,6.53844-1.06827,8.20626-.20054Z" style="fill:#58c6c6;"/><path d="M7.01334,15.90232c-.21495,2.54536,1.76097,4.63064,4.41333,4.65759s4.97679-2.01461,5.19174-4.55997c.15748-1.86481-2.13778-5.23631-3.37639-6.90586-.39502-.53245-1.17574-.57407-1.62687-.08824-1.49969,1.61503-4.44203,5.00435-4.60181,6.89648Z" style="fill:#bbe8e8;"/></g></g><rect y="0" width="40" height="40" style="fill:none;"/></svg>

<svg id="Layer_1" data-name="Layer 1" xmlns="http://www.w3.org/2000/svg" viewBox="0 0 40 40"><defs><style>.cls-1{fill:#03905a;}.cls-2{fill:#d12030;}.cls-3{fill:#e32939;}.cls-4{fill:#ef4452;}.cls-5{fill:#f77f00;}.cls-6{fill:#ff9000;}.cls-7{fill:#ffad00;}.cls-8{fill:#18a4a4;}.cls-9{fill:#58c6c6;}.cls-10{fill:#bbe8e8;}.cls-11{fill:none;}</style></defs><path class="cls-1" d="M36.147,20.392c-10.3,1.547-14.06,7.359-15.415,11.807V13.4H19.294V32.289c-1.332-4.459-5.068-10.34-15.441-11.9,0,0,4.713,9.053,16.145,17.214v0l0,0,0,0v0C31.434,29.445,36.147,20.392,36.147,20.392ZM20,36.366v0Z"/><path class="cls-2" d="M24.937,9.528a4.706,4.706,0,0,1-4.888,4.5,4.705,4.705,0,0,1-4.888-4.5c0-1.849,2.707-5.188,4.092-6.775a1.056,1.056,0,0,1,1.592,0C22.23,4.34,24.937,7.679,24.937,9.528Z"/><path class="cls-3" d="M24.043,7.177a4.3,4.3,0,0,1-1.613,6.185,5.139,5.139,0,0,1-6.722-1.484c-1.033-1.552-.651-5.6-.372-7.649a1.054,1.054,0,0,1,1.377-.858C18.8,4.059,22.994,5.6,24.043,7.177Z"/><path class="cls-4" d="M16,7.43a4.3,4.3,0,0,0,1.612,6.185,5.137,5.137,0,0,0,6.722-1.484c1.034-1.551.651-5.6.372-7.648a1.054,1.054,0,0,0-1.377-.859C21.246,4.313,17.049,5.856,16,7.43Z"/><rect class="cls-1" x="23.763" y="19.437" width="1.209" height="11.213" transform="translate(10.851 -7.179) rotate(21.459)"/><rect class="cls-1" x="15.076" y="19.437" width="1.209" height="11.213" transform="translate(39.436 42.614) rotate(158.541)"/><path class="cls-5" d="M32.683,18.026a4.676,4.676,0,0,1-6.39,1.659,4.677,4.677,0,0,1-2.184-6.23c.865-1.622,4.8-3.284,6.757-4.029a1.049,1.049,0,0,1,1.4.744C32.735,12.21,33.547,16.405,32.683,18.026Z"/><path class="cls-6" d="M33,15.546a4.27,4.27,0,0,1-4.307,4.67,5.108,5.108,0,0,1-5.2-4.445c-.18-1.844,2.047-5.212,3.251-6.882A1.048,1.048,0,0,1,28.35,8.78C29.856,10.359,32.815,13.675,33,15.546Z"/><path class="cls-7" d="M25.726,11.776a4.377,4.377,0,0,0-1.515,6.333A5.234,5.234,0,0,0,30.964,20c1.673-.9,3.268-4.719,4-6.7a1.074,1.074,0,0,0-.826-1.432C31.935,11.488,27.423,10.864,25.726,11.776Z"/><path class="cls-8" d="M15.889,13.379a4.676,4.676,0,0,1-2.1,6.259,4.675,4.675,0,0,1-6.412-1.572c-.886-1.609-.13-5.814.314-7.86a1.05,1.05,0,0,1,1.386-.764C11.045,10.161,15,11.77,15.889,13.379Z"/><path class="cls-9" d="M13.984,11.761a4.271,4.271,0,0,1,1.561,6.158A5.107,5.107,0,0,1,8.982,19.85c-1.644-.856-3.25-4.561-3.992-6.481a1.049,1.049,0,0,1,.787-1.408C7.922,11.561,12.316,10.893,13.984,11.761Z"/><path class="cls-10" d="M7.013,15.9a4.313,4.313,0,0,0,4.414,4.658A5.158,5.158,0,0,0,16.618,16c.158-1.865-2.137-5.236-3.376-6.906a1.059,1.059,0,0,0-1.627-.088C10.115,10.621,7.173,14.01,7.013,15.9Z"/><rect class="cls-11" width="40" height="40"/></svg>
